src/svg/star-birds.svg

<?xml version="1.0" encoding="UTF-8"?>
<svg width="448px" height="425px" viewBox="0 0 448 425" version="1.1" xmlns="http://www.w3.org/2000/svg" xmlns:xlink="http://www.w3.org/1999/xlink">
    <title>star-birds</title>
    <g id="🚀-Components" stroke="none" stroke-width="1" fill="none" fill-rule="evenodd" opacity="0.1">
        <g id="components/tablet/closing-cta(C)" transform="translate(-46.000000, 52.000000)" fill="#FFFFFF">
            <g id="star-birds" transform="translate(46.000000, -52.000000)">
                <path d="M421.437011,62.1795163 C427.226896,77.4804956 413.391586,161.70059 401.962855,184 C401.550011,148.778878 398.438577,104.279608 385.116805,84.9368609 C350.236518,105.225342 339.562989,106.937618 301.621616,129.35649 C323.723876,105.683277 331.386664,95.5987664 345.050794,75.7682194 C310.089953,77.5999567 259.269859,81.761186 223,89.7053509 C254.577534,73.0305686 317.198926,54.4842288 350.236518,50.0741222 C342.563661,39.6013634 280.546431,6.40112536 265.120161,0 C314.228463,3.78293567 374.241889,21.9211167 403.342358,39.5117676 C414.791228,35.9777092 426.69322,35.8084727 448,33.9269599 C442.572611,43.1453768 442.341016,48.461397 421.437011,62.1795163 L421.437011,62.1795163 Z" id="Path"></path>
                <path d="M246.059665,401.947726 C239.85272,403.1793 231.34728,403.755358 222.274812,403.397804 C204.879163,413.478829 181.529707,420.878202 163.759414,425 C174.360837,418.405123 183.585188,411.482488 194.510628,401.81861 C183.585188,399.554104 173.459665,396.385781 163,391.111866 C180.041255,391.111866 193.994226,389.304234 211.460753,384.507057 C221.636904,373.333508 229.524686,363.759017 238.688285,351.572399 C239.08318,360.113957 239.508452,366.520125 240.217238,374.108207 C257.005356,366.321485 269.510377,358.932044 284,349 C270.391297,362.537376 258.493808,373.790382 242.120837,386.225301 C243.44728,392.949294 244.449707,396.792995 246.059665,401.947726 L246.059665,401.947726 Z" id="Path"></path>
                <path d="M134.382342,240.040617 C126.168415,220.565542 114.275857,181.575807 114.275857,181.575807 C91.468351,193.559708 39,242 39,242 C67.8344126,185.286759 97.122355,159.478325 97.122355,159.478325 C87.0439165,149.453807 60.6283291,144.456392 41.3079624,143.615243 C51.3360088,139.597519 77.0662623,134.887084 96.8401587,133.996455 C116.634212,133.452182 128.597318,134.550624 128.597318,134.550624 C146.254743,120.874529 173.043232,109.345839 182.275082,108 C176.02645,115.966177 168.790131,130.81988 166.824836,137.707407 C218.527225,144.594934 260,170.670556 260,170.670556 C214.798203,162.803338 190.972775,163.783029 174.101468,165.26741 C157.351104,166.821062 153.894199,168.760653 153.894199,168.760653 C141.709367,194.994609 134.382342,240.040617 134.382342,240.040617 L134.382342,240.040617 Z" id="Path"></path>
                <path d="M75.9406714,411 C61.1022639,396.399948 51.9594067,383.603724 43.1163154,364.6984 C26.6491803,357.034618 14.7484778,350.098348 0,341.119066 C10.5217799,336.375295 19.5747073,333.285864 32.3647151,329.747967 C28.3778298,307.324679 29.5469165,287.183582 32.6444965,259 C38.4099922,285.589038 43.5559719,304.69368 54.8971116,324.495935 C68.8262295,321.864936 80.7569087,320.041175 96.9142857,317.629426 C88.1311475,330.664831 82.7453552,340.800157 78.0190476,353.815631 C93.7967213,368.505376 108.115535,377.086022 128,384.430894 C107.106323,383.793076 91.3686183,380.982691 72.9729899,375.630999 C71.5441062,388.696302 72.463388,398.562549 75.9406714,411 L75.9406714,411 Z" id="Path"></path>
            </g>
        </g>
    </g>
</svg>

<svg width="448" height="425" xmlns="http://www.w3.org/2000/svg">
    <g fill="#FFF" opacity=".1">
        <path d="M421.4 62.2c5.8 15.3-8 99.5-19.4 121.8-.4-35.2-3.6-79.7-16.9-99-34.9 20.2-45.5 22-83.5 44.4a381.1 381.1 0 0043.5-53.6c-35 1.8-85.8 6-122.1 14C254.6 73 317.2 54.4 350.2 50c-7.6-10.5-69.7-43.7-85-50.1 49 3.8 109 22 138.1 39.5 11.5-3.5 23.4-3.7 44.7-5.6-5.4 9.2-5.7 14.6-26.6 28.3z"/>
        <path d="M246 402a107 107 0 01-23.7 1.4 227.7 227.7 0 01-58.5 21.6 219.2 219.2 0 0030.7-23.2c-11-2.2-21-5.4-31.5-10.7 17 0 31-1.8 48.5-6.6 10.1-11.2 18-20.7 27.2-33 .4 8.6.8 15 1.5 22.6A283.1 283.1 0 00284 349a393.7 393.7 0 01-41.9 37.2 133 133 0 004 15.7z"/>
        <path d="M134.4 240a830.8 830.8 0 01-20.1-58.4C91.5 193.6 39 242 39 242c28.8-56.7 58.1-82.5 58.1-82.5-10-10-36.5-15-55.8-15.9 10-4 35.8-8.7 55.5-9.6 19.8-.5 31.8.6 31.8.6 17.7-13.7 44.4-25.3 53.7-26.6-6.3 8-13.5 22.8-15.5 29.7 51.7 6.9 93.2 33 93.2 33-45.2-7.9-69-7-85.9-5.4-16.7 1.5-20.2 3.5-20.2 3.5-12.2 26.2-19.5 71.2-19.5 71.2z"/>
        <path d="M76 411A146.9 146.9 0 0143 364.7 407.1 407.1 0 010 341.1c10.5-4.7 19.6-7.8 32.4-11.4-4-22.4-2.9-42.5.2-70.7 5.8 26.6 11 45.7 22.3 65.5 14-2.6 25.9-4.5 42-6.9-8.8 13-14.2 23.2-18.9 36.2a137.8 137.8 0 0050 30.6c-20.9-.6-36.6-3.4-55-8.8-1.5 13.1-.5 23 3 35.4z"/>
    </g>
</svg>
